X:87
T: Willafjord Reel
O: Shetland
M: 4/4
L: 1/8
Q:1/4=160
R: reel
Z: Les LaCroix (Les.LaCroix@carleton.edu)
K: Dmaj
%P:A
FG| "D"A2F A- ADFA | "G"B2GB- BDGB | "D"A2FA- ADFA | "A"EFGA GFED |
"D"A2FA- ADFA | "G"B2GB- BDGB | "A"ABcd efge | f2d2 d2:|
%P:B
de | "D"f2d f- ffd fd | "G"gfaf gfed | "D"f2d f- fd fd | "A"eaca Aage |
"D"f2d f- fd fd | "G"gfaf gfed | "A"ABcd efge | f2d2 d2 :|

